!!!!SEGMENT: pl-cz--iii-107--011_dankowski-adalbert--vesperae-es-gloria-patri.krn
!!!cenid: 18xx:771
!!!COM: Dankowski, Adalbert
!!!COM-rismID: pe30000793
!!!CDT: ~1760-~1836
!!!CNT: Polish
!!!OPR: Vesperae Es
!!!OTL: Gloria patri
!!!OMV: 011
!!!PDT: 1825
!!!AGN: Sacred; Vespers
!!!SMS-siglum: PL-CZ
!!!SMS-shelfmark: III-107
!!!SMS-shelfwork: 001-011 M
!!!SMS-variant:
!!!SMS-altvar:
!!!NIFC-rismSourceID: 300000115
!!!NIFC-rismChildID: 300000115
!!!NIFC-islandoraID: pl-cz:34263
!!!URL-pdf-islandora: https://repozytorium.nifc.pl/islandora/object/pl-cz%3A34263/datastream/PDF/view
!!!URL-scan:
!!!ONB-nifc: UWAGA: części Vesperae: Dixit Dominus, Tecum principium, Iudicabit, De torrente,
!!!AIN: 1 alto 1 bass 2 clara 2 cor 1 organ 1 soprn 1 tenor 2 violn
!!!key: E-
**kern	**fba	**dynam	**kern	**kern	**kern	**text	**kern	**text	**kern	**text	**kern	**text	**kern	**kern	**kern	**kern
*part11	*part11	*part11	*part10	*part9	*part8	*part8	*part7	*part7	*part6	*part6	*part5	*part5	*part4	*part3	*part2	*part1
*staff11	*staff11	*	*staff10	*staff9	*staff8	*staff8	*staff7	*staff7	*staff6	*staff6	*staff5	*staff5	*staff4	*staff3	*staff2	*staff1
*	*	*	*group4	*group4	*group3	*	*group3	*	*group3	*	*group3	*	*group2	*group2	*group1	*group1
*I"Organo.	*	*	*I"Violino Secondo.	*I"Violino ,, Primo	*I"Baſso	*	*I"Tenore	*	*I"Alto!	*	*I"Soprano.	*	*I"Corno Secondo. in Dis Obligato.	*I"Corno Prymo in Dis Obligato	*I"Clarinetto Secundo in Dis	*I"Clarinetto. Primo. in Dis.
*I'org	*	*	*I'vl 2	*I'vl 1	*I'B	*	*I'T	*	*I'A	*	*I'S	*	*I'cor 2 in Dis	*I'cor 1 in Dis	*I'cl 2 in Dis	*I'cl 1 in Dis
*Iorgan	*	*	*Ivioln	*Ivioln	*Ibass	*	*Itenor	*	*Ialto	*	*Isoprn	*	*Icor	*Icor	*Iclara	*Iclara
*ICklav	*	*	*ICstr	*ICstr	*ICvox	*	*ICvox	*	*ICvox	*	*ICvox	*	*ICbras	*ICbras	*ICww	*ICww
*IGcont	*	*	*IGacmp	*IGacmp	*IGcoro	*	*IGcoro	*	*IGcoro	*	*IGcoro	*	*IGacmp	*IGacmp	*IGacmp	*IGacmp
*clefF4	*	*	*clefG2	*clefG2	*clefF4	*	*clefC4	*	*clefC3	*	*clefC1	*	*clefG2	*clefG2	*clefG2	*clefG2
*	*	*	*	*	*	*	*	*	*	*	*	*	*ITrd5c9	*ITrd5c9	*ITrd1c2	*ITrd1c2
*k[b-e-a-]	*	*	*k[b-e-a-]	*k[b-e-a-]	*k[b-e-a-]	*	*k[b-e-a-]	*	*k[b-e-a-]	*	*k[b-e-a-]	*	*k[b-e-a-]	*k[b-e-a-]	*k[b-e-a-]	*k[b-e-a-]
*E-:	*	*	*E-:	*E-:	*E-:	*	*E-:	*	*E-:	*	*E-:	*	*E-:	*E-:	*E-:	*E-:
*M3/4	*	*	*M3/4	*M3/4	*M3/4	*	*M3/4	*	*M3/4	*	*M3/4	*	*M3/4	*M3/4	*M3/4	*M3/4
*	*	*	*	*	*all\right	*	*	*	*all\right	*	*	*	*	*	*all\right	*
=1	=1	=1	=1	=1	=1	=1	=1	=1	=1	=1	=1	=1	=1	=1	=1	=1
!	!	!	!	!	!	!	!	!	!LO:TX:a:i:t=Solo.	!	!	!	!	!	!	!
!LO:TX:a:Bi:t=Adagio	!	!LO:DY:t=p&colon;:rj	!LO:TX:a:Bi:t=Adagio.	!LO:TX:a:Bi:t=Adagio	!LO:TX:a:Bi:t=Adagio	!	!LO:TX:a:Bi:t=Adagio	!	!LO:TX:a:Bi:t=Adagio	!	!LO:TX:a:Bi:t=Adagio	!	!LO:TX:a:Bi:t=Adagio	!LO:TX:a:Bi:t=Adagio	!LO:TX:a:Bi:t=Adagio	!LO:TX:a:Bi:t=Adagio
4E-\	.	p	4g/	4b-\	4E-\	Glo-	4B-\	Glo-	(16g\LL	Glo-	16ee-\LL	Glo-	4E-/	4e-\	16ee-\LL	(16gg\LL
.	.	.	.	.	.	.	.	.	16f\	.	16dd\	.	.	.	16dd\	16ff\)
.	.	.	.	.	.	.	.	.	16g\	.	16ee-\	.	.	.	16ee-\	16gg'\
.	.	.	.	.	.	.	.	.	16a-\JJ)	.	16ff\JJ	.	.	.	16ff\JJ	16aa-'\JJ
4r	.	.	4r	4r	4E-\	-ri-	4B-\	-ri-	4b-\	-ri-	4gg\	-ri-	4E-/	4e-\	4gg\	4bb-\
4r	.	.	4r	4r	4E-\	-a	4B-\	-a	4g\	-a	4ee-\	-a	4E-/	4e-\	4ee-\	4gg\
=2	=2	=2	=2	=2	=2	=2	=2	=2	=2	=2	=2	=2	=2	=2	=2	=2
.	.	.	.	.	.	.	.	.	.	.	.	.	.	.	.	8qqaa-/
4r	.	.	4r	4r	4B-\	Pa-	4B-\	pa-	8g\L	Pa-	8ee-\L	pa-	4BB-/	4B-/	8ee-\L	8gg\L
.	.	.	.	.	.	.	.	.	16f\L	.	16dd\L	.	.	.	(16dd\L	(16ff\L
.	.	.	.	.	.	.	.	.	16g\JJ	.	16ee-\JJ	.	.	.	16ee-\JJ)	16gg\JJ)
8r	.	.	8r	8r	4BB-/	-tri	4B-\	-tri	4f\	-tri	4dd\	-tri	4BB-/	4B-/	4dd\	4ff\
8BB-/L	.	.	8B-'/L	8B-/L	.	.	.	.	.	.	.	.	.	.	.	.
8D/	.	.	8d'/	8d/	4r	.	4r	.	4r	.	4r	.	4r	4r	4r	4r
8F/J	.	.	8f'/J	8f/J	.	.	.	.	.	.	.	.	.	.	.	.
=3	=3	=3	=3	=3	=3	=3	=3	=3	=3	=3	=3	=3	=3	=3	=3	=3
4B-\	.	.	4b-\	4b-\	4B-\	glo-	4B-\	glo-	(16f\LL	glo-	16dd\LL	glo-	4BB-/	4B-/	(16dd\LL	(16ff\LL
.	.	.	.	.	.	.	.	.	16e-\	.	16cc\	.	.	.	16cc\	16ee-\)
.	.	.	.	.	.	.	.	.	16f\	.	16dd\	.	.	.	16dd\	16ff\
.	.	.	.	.	.	.	.	.	16g\JJ)	.	16ee-\JJ	.	.	.	16ee-\JJ)	16gg\JJ
4r	.	.	4r	4r	4BB-/	-ri-	4B-\	-ri-	4f\	-ri-	4dd\	-ri-	4BB-/	4B-/	4dd\	4ff\
4r	.	.	4r	4r	4B-\	-a	4d\	-a	4a-\	-a	4ff\	-a	4BB-/	4B-/	4ff\	4aa-\
!	!	!	!	!	!	!	!	!	!LO:LB:g=original	!	!	!	!	!	!	!
=4	=4	=4	=4	=4	=4	=4	=4	=4	=4	=4	=4	=4	=4	=4	=4	=4
.	.	.	.	.	.	.	.	.	.	.	.	.	.	.	16qqgg/	.
4r	.	.	4r	4r	8e-\	Fi-	8.B-\	fi-	8a-\	fi-	8ff\	fi-	4E-/	4e-\	8ff\L	8aa-\L
.	.	.	.	.	8E-\	-li-	.	.	16g\LL	-li-	16ee-\LL	-li-	.	.	16ee-\L	16gg\L
.	.	.	.	.	.	.	16B-\	-li-	16a-\JJ	.	16ff\JJ	.	.	.	16ff\JJ	16aa-\JJ
8r	.	.	8r	8r	4E-\	-o	4B-\	-o	4g\	-o	4ee-\	-o	4E-/	4e-\	4ee-\	4gg\
8EE-/L	.	.	8e-'/L	8e-/L	.	.	.	.	.	.	.	.	.	.	.	.
8GG/	.	.	8g'/	8g/	4r	.	4r	.	4r	.	4r	.	4r	4r	4r	4r
8BB-/J	.	.	8b-'/J	8b-/J	.	.	.	.	.	.	.	.	.	.	.	.
!LO:LB:g=original	!	!	!	!	!	!	!	!	!	!	!LO:LB:g=original	!	!	!	!LO:LB:g=original	!
=5	=5	=5	=5	=5	=5	=5	=5	=5	=5	=5	=5	=5	=5	=5	=5	=5
*	*	*	*	*	*2\right	*	*2\right	*	*	*	*	*	*	*	*	*
4E-\	.	.	4e-/	4e-/	2E-\	et	2B-\	et	4.g\	et	4.ee-\	et	4E-/	8e-\L	4.ee-\	4.gg\
.	.	.	.	.	.	.	.	.	.	.	.	.	.	8e-\J	.	.
4EE-/	.	.	4e-/	4e-/	.	.	.	.	.	.	.	.	4E-/	4e-\	.	.
.	.	.	.	.	.	.	.	.	16a-\LL	.	16ff\LL	.	.	.	(16ff\LL	16aa-\LL
.	.	.	.	.	.	.	.	.	16b-\JJ	.	16gg\JJ	.	.	.	16gg\JJ)	16bb-\JJ
4r	.	.	4r	4r	4E-\	spi-	4B-\	spi-	8a-\	.	8ff\	spi-	4E-/	4r	8ff\L	8aa-\L
.	.	.	.	.	.	.	.	.	8g\	spi-	8ee-\	-ri-	.	.	8ee-\J	8gg\J
!	!	!	!LO:LB:g=original	!	!LO:LB:g=original	!	!	!	!	!	!	!	!	!	!	!
=6	=6	=6	=6	=6	=6	=6	=6	=6	=6	=6	=6	=6	=6	=6	=6	=6
4BB-/	.	.	4d/	4B-/	2B-\	-ri-	2B-\	-ri-	4.f\	-ri-	4.dd\	-tu-	8BB-/L	4B-/	4.dd\	4.ff\
.	.	.	.	.	.	.	.	.	.	.	.	.	8BB-/J	.	.	.
4B-\	.	.	4d/	4B-/	.	.	.	.	.	.	.	.	4BB-/	8B-/L	.	.
.	.	.	.	.	.	.	.	.	16g\LL	.	16ee-\LL	.	.	8B-/J	(16ee-\LL	16gg\LL
.	.	.	.	.	.	.	.	.	16a-\JJ	.	16ff\JJ	.	.	.	16ff\JJ)	16aa-\JJ
4r	.	.	4r	4r	8B-\	-tu-	8B-\	-tu-	8g\	-tu-	8ee-\	.	4r	4r	8ee-\L	8gg\L
.	.	.	.	.	8B-\	-i	8B-\	-i	8b-\	-i	8gg\	-i	.	.	8gg\J	8bb-\J
=7	=7	=7	=7	=7	=7	=7	=7	=7	=7	=7	=7	=7	=7	=7	=7	=7
*	*	*	*	*2\right	*	*	*	*	*	*	*	*	*	*	*	*
*	*	*	*	*tremolo	*	*	*	*	*2\right	*	*	*	*	*	*	*2\right
!	!	!	!	!	!	!	!	!	!	!	!	!	!LO:TX:a:t=1.	!LO:TX:a:t=1	!	!
8E-\L	.	.	8g/L	8b-\L	8E-\L	San-	8e-\L	San-	2b-\	Sanc-	8gg\L	Sanc-	2.r	2.r	8gg\L	2bb-\
8D\J	6	.	8f/J	8b-\	8D\J	.	8f\J	.	.	.	8ff\J	.	.	.	8ff\J	.
*	*	*	*tremolo	*	*	*	*	*	*	*	*2\right	*	*	*	*2\right	*
2C/	7	.	8e-/L	8b-\	2C/	.	4g\	.	.	.	2ee-\	.	.	.	2ee-\	.
.	.	.	8e-/	8b-\J	.	.	.	.	.	.	.	.	.	.	.	.
*	*	*	*	*Xtremolo	*	*	*	*	*	*	*	*	*	*	*	*
.	6\	.	8e-/	8an\L	.	.	4f\	.	4an\	.	.	.	.	.	.	4aa\
.	.	.	8e-/J	8a\J	.	.	.	.	.	.	.	.	.	.	.	.
*	*	*	*Xtremolo	*	*	*	*	*	*	*	*	*	*	*	*	*
=8	=8	=8	=8	=8	=8	=8	=8	=8	=8	=8	=8	=8	=8	=8	=8	=8
4BB-/	.	.	4d/	8b-/L	4BB-/	-cto	4f\	-cto	4b-\	-to.	4dd\	-to.	4BB-/	4B-/	4dd\	4bb-\
.	.	.	.	8f/J	.	.	.	.	.	.	.	.	.	.	.	.
4r	.	.	4d/	4f/	4r	.	4r	.	4r	.	4r	.	4BB-/	4B-/	4r	4r
!	!	!	!	!	!	!	!	!	!	!	!LO:TX:b:i:t=Seq Allo	!	!	!	!	!
4r	.	.	4r	4r	4r	.	4r	.	4r	.	4r	.	4r	4r	4r	4r
==	==	==	==	==	==	==	==	==	==	==	==	==	==	==	==	==
*-	*-	*-	*-	*-	*-	*-	*-	*-	*-	*-	*-	*-	*-	*-	*-	*-
!!!system-decoration: [(g1)][(g2)][(g3)][(g4)]<s11>
!!!ENC: Marcin Jachim
!!!END: 2020-07-09
!!!ENC: Andrzej Kubiczek
!!!END: 2021-11-22
!!!YEC: Copyright 2022 Narodowy Instytut Fryderyka Chopina (https://polishscores.org)
!!!YEM: License CC-BY-4.0 (https://creativecommons.org/licenses/by/4.0)
